images/new_icons/Uniswap.svg

<svg width="80" height="80" viewBox="0 0 80 80" fill="none" xmlns="http://www.w3.org/2000/svg">
<path fill-rule="evenodd" clip-rule="evenodd" d="M28.2497 26.38C27.7675 25.77 21.0412 17.9343 13.915 9.67466C5.39478 17.0102 0 27.8751 0 40C0 62.0914 17.9086 80 40 80C62.0914 80 80 62.0914 80 40C80 17.9086 62.0914 0 40 0C30.3785 0 21.5504 3.39707 14.6497 9.05723C21.6905 16.3939 29.4958 24.5587 30.4844 25.6362L30.9941 26.1569L30.9549 27.0122C30.9157 28.1651 30.5236 28.9461 29.6219 29.7271C28.6026 30.6568 27.3088 31.1403 25.3094 31.4006C24.094 31.5494 23.6628 31.7353 23.1531 32.256C22.6826 32.7395 22.4866 33.3717 22.369 34.9337C22.173 37.3882 21.8593 38.3923 20.644 40.8097C19.4678 43.1526 19.2326 44.008 19.4286 45.2724C19.6638 46.76 20.5656 47.8757 22.6826 49.2518C24.29 50.2931 25.0349 50.9625 25.427 51.7807C25.6622 52.3013 25.7014 52.4873 25.7014 53.3426C25.7014 54.6815 25.4662 55.2021 24.5253 56.1691C22.9963 57.731 20.2127 58.9955 16.8411 59.7393C15.4297 60.0368 15.3513 60.0368 15.3513 59.7393C15.3513 59.3674 14.8024 58.3633 13.9007 57.0244C12.8422 55.4996 12.4109 54.7187 12.0189 53.5286C11.5876 52.1898 11.4308 51.2972 11.5092 49.884C11.5876 48.5451 11.7444 47.9501 12.2933 46.9088C12.7246 46.0534 12.999 45.6815 14.7632 43.5989C17.782 40.0659 18.8405 37.9832 19.2326 35.0452C19.5854 32.4048 20.0559 31.1403 21.1144 30.0246C21.7417 29.3552 21.8985 29.0949 21.8985 28.6114C21.8985 28.3882 20.9184 26.5659 17.8996 21.4709C13.1166 13.3635 13.1166 13.3635 13.2734 13.4379C13.3126 13.4751 15.5473 16.7106 18.1741 20.6156C21.6241 25.7106 23.1531 27.8304 23.5059 28.1651C24.0156 28.6486 24.7605 28.9461 25.3878 28.9461C25.9366 28.9461 27.0736 28.6486 27.6225 28.3511C28.6026 27.8304 28.8378 27.1238 28.2497 26.38ZM16.3706 51.4831C16.8019 50.7765 16.5667 49.884 15.861 49.4377C15.1945 49.0286 14.1752 49.2146 14.1752 49.7724C14.1752 49.9212 14.2536 50.0699 14.4888 50.1443C14.8416 50.3303 14.8808 50.5162 14.6064 50.9253C14.332 51.3344 14.332 51.7063 14.6848 51.9666C15.2337 52.3757 15.9786 52.1526 16.3706 51.4831ZM28.4084 13.2148C28.0164 13.252 28.0556 13.2892 28.8789 13.4008C31.8977 13.847 34.2108 14.9627 36.5239 17.0826C37.5824 18.0495 38.6409 19.2024 40.3268 21.3222C44.1296 26.1197 45.7762 27.4213 48.991 28.4255C50.8729 29.0205 52.7939 29.2808 56.1656 29.4668C59.89 29.6527 61.3014 29.9131 62.6344 30.7684C63.3793 31.2519 63.9281 31.8097 64.5162 32.6651L64.869 33.1486L64.7906 32.5907C64.5554 30.5081 62.9872 27.5701 60.9878 25.4503L60.6349 25.0784L60.4389 25.8594C59.9684 27.8304 58.9883 29.2436 58.0474 29.2436C57.6161 29.2436 57.1457 28.9833 56.9889 28.6114C56.7928 28.1279 56.7928 27.9792 57.1065 27.4213C57.6945 26.4172 57.8122 25.1156 57.5377 23.3676C57.4593 22.8842 57.3417 22.4007 57.2633 22.3263C57.0673 22.1032 55.4599 21.2106 54.4405 20.7644C50.7161 19.128 46.2467 18.6073 41.8949 19.2768L40.8756 19.4255L40.1699 18.6445C37.4648 15.7809 34.9165 14.1446 32.0937 13.5123C30.8784 13.252 29.1533 13.1032 28.4084 13.2148ZM58.0845 18.1239C58.1629 16.7106 58.3589 15.7809 58.7902 14.9255C58.947 14.5908 59.1038 14.2933 59.143 14.2933C59.1822 14.2933 59.1038 14.5536 58.9862 14.8511C58.6726 15.6693 58.6334 16.8222 58.8294 18.1239C59.1038 19.7974 59.2214 20.0205 61.1033 21.8428C61.9658 22.6982 62.9851 23.7767 63.3772 24.223L64.0436 25.0412L63.3772 24.4461C62.5539 23.7023 60.672 22.2891 60.2408 22.1032C59.9663 21.9544 59.9271 21.9544 59.7311 22.1404C59.5743 22.2891 59.5351 22.5123 59.5351 23.5908C59.4959 25.2643 59.2606 26.3056 58.6726 27.3841C58.3589 27.942 58.3197 27.8304 58.5942 27.1982C58.7902 26.7147 58.8294 26.4916 58.8294 24.8924C58.8294 21.6569 58.4373 20.8759 56.0458 19.5743C55.4578 19.2396 54.4384 18.7561 53.8504 18.4958C53.2231 18.2354 52.7526 18.0123 52.7918 18.0123C52.8702 17.9379 55.1833 18.5701 56.085 18.942C57.4572 19.4627 57.6924 19.4999 57.8493 19.4627C57.9669 19.3511 58.0453 19.0536 58.0845 18.1239ZM28.0147 15.6693C27.7794 18.161 28.838 21.5081 30.4846 23.6651C31.7783 25.3387 33.7778 26.6403 35.2676 26.7891C36.2477 26.8634 36.5221 26.5659 36.0909 25.9709C35.4636 25.1527 34.7187 23.8511 34.5227 23.2932C34.4051 22.9585 34.1306 21.9172 33.9346 21.0246C33.2681 17.9751 32.5624 16.7478 30.9942 15.8553C30.4062 15.5205 29.1908 15.0743 28.4851 14.9627L28.0931 14.8883L28.0147 15.6693ZM56.0837 39.8427C48.3211 36.8676 45.5767 34.3015 45.5767 29.9502C45.5767 29.318 45.6159 28.7974 45.6159 28.7974C45.6421 28.7974 45.7726 28.8964 45.9611 29.0395L45.9612 29.0395L45.9614 29.0397L45.9615 29.0397L45.9615 29.0398C46.0559 29.1114 46.1648 29.194 46.2824 29.2808C47.8506 30.4709 49.6149 30.9916 54.5155 31.661C57.3774 32.0701 59.024 32.3676 60.5138 32.8511C65.2576 34.3386 68.198 37.3882 68.9037 41.5163C69.0997 42.7064 68.9821 44.9749 68.6685 46.165C68.394 47.0948 67.6099 48.8055 67.4139 48.8427C67.3747 48.8427 67.2963 48.6567 67.2963 48.3592C67.2179 46.7973 66.3946 45.3097 65.0224 44.1568C63.3758 42.8179 61.2587 41.8138 56.0837 39.8427ZM50.2042 39.5081C50.3218 39.8056 50.5179 40.5122 50.5963 41.07C51.2235 44.5659 49.3025 47.4295 45.4212 48.5824C45.0292 48.7311 43.461 49.0287 41.932 49.2518C38.8348 49.7725 37.4234 50.1072 36.0512 50.7394C35.0711 51.1857 33.8558 51.8551 33.9342 51.9295C33.9734 51.9667 34.2086 51.8923 34.4438 51.8179C36.2081 51.2229 38.1683 50.9254 41.1087 50.7766C42.093 50.7143 43.1872 50.626 43.7937 50.5771L43.794 50.5771L44.0882 50.5535C46.715 50.2187 48.5576 49.4749 49.969 48.0989C50.7531 47.3179 51.2235 46.6113 51.6156 45.6072C51.8508 44.975 51.89 44.7146 51.89 43.5989V43.5989C51.89 42.4461 51.89 42.2229 51.6156 41.5163C51.2628 40.5866 50.8707 39.9171 50.361 39.3593L50.0082 38.9502L50.2042 39.5081ZM54.1642 47.0576C53.1448 44.9378 52.9096 42.9295 53.4585 41.0328C53.5369 40.8469 53.6153 40.6609 53.6937 40.6609C53.7721 40.6609 54.0073 40.7725 54.2426 40.9213C54.713 41.2188 55.6932 41.7395 58.2023 43.0411C61.3779 44.6775 63.1813 45.9419 64.4359 47.3923C65.5336 48.6568 66.2001 50.1072 66.5137 51.8923C66.7097 52.8964 66.5921 55.3138 66.3177 56.3179C65.4552 59.479 63.4949 62.0079 60.633 63.4583C60.2017 63.6815 59.8489 63.8302 59.8097 63.8302C59.7705 63.8302 59.9273 63.4583 60.1625 63.0121C61.1034 61.1154 61.221 59.2931 60.5154 57.2476C60.0841 55.9832 59.1824 54.4584 57.379 51.8923C55.2227 48.9171 54.713 48.1361 54.1642 47.0576ZM34.72 53.9749C31.4268 54.4955 27.8591 56.1319 24.958 58.4376L24.1347 59.1814L24.8796 59.293C28.8001 59.8509 29.8586 60.3715 32.6029 63.0492C34.1711 64.574 34.72 64.9087 36.0138 65.2434C37.9348 65.7269 39.8167 64.8715 40.4831 63.2351C40.7576 62.4913 40.7184 61.3013 40.4047 60.7062C39.6206 59.2558 37.3075 58.8095 36.2098 59.8509C35.3081 60.7062 35.5825 62.0451 36.7195 62.2682C36.8259 62.285 36.8842 62.2942 36.887 62.2855C36.8905 62.2749 36.8128 62.2381 36.6411 62.1566C36.1314 61.9335 35.8962 61.636 35.8962 61.1525C35.857 59.9996 37.2291 59.4046 38.4837 59.9252C39.4246 60.3343 39.7775 60.855 39.7775 61.7475C39.7775 63.1236 38.5229 64.2021 37.0723 64.0161C36.2882 63.9046 35.3473 63.4583 34.8376 62.9004C33.5831 61.5616 34.0535 59.3674 35.857 58.5492C37.2291 57.917 39.0326 58.1029 40.4439 58.9583C42.0513 59.9624 42.757 60.855 44.1292 63.8674C44.5997 64.8715 45.1485 65.95 45.423 66.3219C46.7167 68.1814 48.3241 69.1111 50.206 69.1111C51.2645 69.1111 52.0486 68.9624 53.0287 68.4789C53.7344 68.1442 54.7929 67.4748 54.7145 67.4004C54.7145 67.3711 54.5198 67.4342 54.2645 67.5168C54.1959 67.5391 54.1228 67.5627 54.048 67.5864C51.9702 68.3302 49.8531 68.293 48.6378 67.4376C47.8537 66.8797 47.2264 65.8384 46.9128 64.4996C46.9053 64.4569 46.892 64.3843 46.8744 64.2877C46.8 63.8794 46.6475 63.043 46.5207 62.231C46.0894 59.6649 45.6582 58.512 44.7173 57.1732C43.7371 55.7972 41.8553 54.6815 39.7775 54.1608C38.4837 53.8261 36.1314 53.7517 34.72 53.9749ZM30.1304 34.1156C30.4048 33.1487 31.3066 32.1817 32.2475 31.9214C32.8748 31.7355 34.0901 31.847 34.6782 32.1445C35.8151 32.7024 36.6384 33.9297 36.4424 34.8222C36.2464 35.9007 34.4037 36.7933 32.2475 36.7933C31.1497 36.7933 30.7577 36.6445 30.3264 36.1239C30.052 35.7892 29.9736 34.7106 30.1304 34.1156ZM34.3645 32.5164C34.9526 32.8512 35.0702 33.3346 34.7566 33.7809C34.5214 34.0784 33.8157 34.3759 33.306 34.3759C32.5219 34.3759 31.6986 33.8553 31.6986 33.3718C31.6986 32.4049 33.306 31.8842 34.3645 32.5164Z" fill="#FF007A"/>
</svg>

<svg width="80" height="80" fill="none" xmlns="http://www.w3.org/2000/svg">
    <path fill-rule="evenodd" clip-rule="evenodd" d="M28.25 26.38c-.483-.61-7.209-8.446-14.335-16.705C5.395 17.01 0 27.875 0 40c0 22.091 17.909 40 40 40s40-17.909 40-40S62.091 0 40 0a39.835 39.835 0 0 0-25.35 9.057c7.04 7.337 14.846 15.502 15.834 16.58l.51.52-.04.855c-.038 1.153-.43 1.934-1.332 2.715-1.02.93-2.313 1.413-4.313 1.674-1.215.148-1.646.334-2.156.855-.47.483-.666 1.116-.784 2.678-.196 2.454-.51 3.458-1.725 5.876-1.176 2.343-1.411 3.198-1.215 4.462.235 1.488 1.137 2.604 3.254 3.98 1.607 1.041 2.352 1.71 2.744 2.529.235.52.274.706.274 1.562 0 1.338-.235 1.86-1.176 2.826-1.529 1.562-4.312 2.827-7.684 3.57-1.411.298-1.49.298-1.49 0 0-.372-.549-1.376-1.45-2.715-1.059-1.524-1.49-2.305-1.882-3.495-.431-1.34-.588-2.232-.51-3.645.079-1.339.235-1.934.784-2.975.432-.856.706-1.227 2.47-3.31 3.019-3.533 4.077-5.616 4.47-8.554.352-2.64.823-3.905 1.881-5.02.628-.67.784-.93.784-1.414 0-.223-.98-2.045-3.998-7.14-4.783-8.107-4.783-8.107-4.627-8.033.04.037 2.274 3.273 4.901 7.178 3.45 5.095 4.98 7.214 5.332 7.55.51.483 1.255.78 1.882.78.549 0 1.686-.297 2.234-.595.98-.52 1.216-1.227.628-1.971ZM16.37 51.483c.432-.706.197-1.599-.509-2.045-.667-.41-1.686-.223-1.686.334 0 .15.079.298.314.372.353.186.392.372.117.781-.274.41-.274.781.079 1.042.549.409 1.294.186 1.686-.484Zm12.038-38.268c-.392.037-.352.074.47.186 3.02.446 5.333 1.562 7.646 3.682 1.058.966 2.117 2.12 3.803 4.24 3.803 4.797 5.45 6.098 8.664 7.102 1.882.595 3.803.856 7.175 1.042 3.724.186 5.135.446 6.468 1.301.745.484 1.294 1.042 1.882 1.897l.353.484-.078-.558c-.236-2.083-1.804-5.02-3.803-7.14l-.353-.373-.196.781c-.47 1.971-1.45 3.385-2.392 3.385-.43 0-.901-.26-1.058-.633-.196-.483-.196-.632.117-1.19.588-1.004.706-2.305.432-4.053-.079-.484-.196-.967-.275-1.042-.196-.223-1.803-1.115-2.822-1.562-3.725-1.636-8.194-2.157-12.546-1.487l-1.02.148-.705-.78c-2.705-2.864-5.254-4.5-8.076-5.133-1.216-.26-2.94-.409-3.686-.297Zm29.676 4.909c.079-1.413.275-2.343.706-3.198.157-.335.314-.633.353-.633.04 0-.04.26-.157.558-.313.818-.353 1.971-.157 3.273.275 1.673.392 1.896 2.274 3.719a61.535 61.535 0 0 1 2.274 2.38l.667.818-.667-.595c-.823-.744-2.705-2.157-3.136-2.343-.275-.149-.314-.149-.51.037-.157.15-.196.372-.196 1.45-.04 1.674-.274 2.716-.862 3.794-.314.558-.353.446-.079-.186.196-.483.235-.706.235-2.306 0-3.235-.392-4.016-2.783-5.318-.588-.334-1.608-.818-2.196-1.078-.627-.26-1.097-.484-1.058-.484.078-.074 2.391.558 3.293.93 1.372.52 1.607.558 1.764.52.118-.11.196-.408.236-1.338Zm-30.07-2.455c-.235 2.492.824 5.84 2.47 7.996 1.294 1.674 3.294 2.975 4.784 3.124.98.074 1.254-.223.823-.818-.627-.818-1.372-2.12-1.568-2.678-.118-.334-.392-1.376-.588-2.268-.667-3.05-1.373-4.277-2.94-5.17-.589-.335-1.804-.78-2.51-.892l-.392-.075-.078.781Zm28.07 24.174C48.32 36.868 45.577 34.3 45.577 29.95c0-.632.039-1.153.039-1.153.026 0 .157.1.345.242l.321.242c1.569 1.19 3.333 1.71 8.234 2.38 2.861.41 4.508.707 5.998 1.19 4.744 1.488 7.684 4.537 8.39 8.665.196 1.19.078 3.459-.236 4.649-.274.93-1.058 2.64-1.254 2.678-.04 0-.118-.186-.118-.484-.078-1.562-.901-3.05-2.274-4.202-1.646-1.34-3.763-2.343-8.938-4.314Zm-5.88-.335c.118.298.314 1.004.392 1.562.628 3.496-1.293 6.36-5.175 7.512-.392.15-1.96.447-3.489.67-3.097.52-4.509.855-5.88 1.487-.98.447-2.196 1.116-2.118 1.19.04.038.275-.037.51-.111 1.764-.595 3.724-.893 6.665-1.041.984-.063 2.078-.151 2.685-.2l.294-.023c2.627-.335 4.47-1.08 5.881-2.455.784-.781 1.255-1.488 1.647-2.492.235-.632.274-.892.274-2.008 0-1.153 0-1.376-.274-2.083-.353-.93-.745-1.599-1.255-2.157l-.353-.409.196.558Zm3.96 7.55c-1.02-2.12-1.254-4.129-.706-6.025.079-.186.157-.372.236-.372.078 0 .313.111.549.26.47.298 1.45.819 3.96 2.12 3.175 1.637 4.978 2.9 6.233 4.351 1.098 1.265 1.764 2.715 2.078 4.5.196 1.004.078 3.422-.196 4.426-.863 3.161-2.823 5.69-5.685 7.14-.431.224-.784.372-.823.372-.04 0 .117-.372.352-.818.941-1.897 1.059-3.719.353-5.764-.43-1.265-1.333-2.79-3.136-5.356-2.156-2.975-2.666-3.756-3.215-4.834ZM34.72 53.975c-3.293.52-6.86 2.157-9.762 4.463l-.823.743.745.112c3.92.558 4.979 1.078 7.723 3.756 1.568 1.525 2.117 1.86 3.41 2.194 1.922.484 3.804-.371 4.47-2.008.275-.744.235-1.934-.078-2.529-.784-1.45-3.098-1.897-4.195-.855-.902.855-.627 2.194.51 2.417.106.017.164.026.167.017.004-.01-.074-.047-.246-.128-.51-.223-.745-.521-.745-1.004-.039-1.153 1.333-1.748 2.588-1.228.94.41 1.294.93 1.294 1.823 0 1.376-1.255 2.454-2.706 2.268-.784-.111-1.725-.558-2.234-1.116-1.255-1.338-.785-3.533 1.019-4.35 1.372-.633 3.176-.447 4.587.408 1.607 1.004 2.313 1.897 3.685 4.91.47 1.003 1.02 2.082 1.294 2.454 1.294 1.86 2.901 2.79 4.783 2.79 1.058 0 1.843-.15 2.823-.633.705-.335 1.764-1.004 1.685-1.079 0-.029-.194.034-.45.117l-.216.07c-2.078.743-4.195.706-5.41-.15-.784-.557-1.412-1.599-1.725-2.937l-.039-.212c-.074-.409-.227-1.245-.353-2.057-.432-2.566-.863-3.719-1.804-5.058-.98-1.376-2.862-2.492-4.94-3.012-1.293-.335-3.646-.41-5.057-.186Zm-4.59-19.86c.275-.966 1.177-1.933 2.118-2.194.627-.186 1.842-.074 2.43.224 1.137.557 1.96 1.785 1.764 2.677-.196 1.079-2.038 1.971-4.194 1.971-1.098 0-1.49-.148-1.922-.67-.274-.334-.352-1.412-.196-2.007Zm4.235-1.599c.588.335.705.819.392 1.265-.236.297-.941.595-1.451.595-.784 0-1.607-.52-1.607-1.004 0-.967 1.607-1.488 2.665-.856Z" fill="#FF007A"/>
</svg>
